X:2962
T:Jan Klaassen
O:england
C:Trad.
L:1/8
M:4/4
K:D
P:A
A2 || d2 AG FDFA | BGBd cAce | f2 fd gfed | c2 e2 e2 A2 |
d2 AG FDFA | BGBd cAce | f2 fd gfed | A2 d2 d2 A2 :|]
P:B
dfaf dfaf | gfef g2 ef | gfed cdeg | fefg f3 f |
dfaf dfaf | gfef g2 ef | gfed caag | f2 d2 d2 A2 :|]


